<?xml version="1.0" encoding="UTF-8"?>
<map version="1.10" tiledversion="1.12.2" orientation="orthogonal" renderorder="right-down" width="20" height="20" tilewidth="32" tileheight="32" infinite="0" nextlayerid="5" nextobjectid="1">
 <tileset firstgid="1" source="../tilesets/tiles.tsx"/>
 <tileset firstgid="6" name="Test" tilewidth="32" tileheight="32" tilecount="855" columns="19">
  <image source="../tilesets/Serene_Village_32x32.png" width="608" height="1440"/>
 </tileset>
 <tileset firstgid="861" name="tiles2" tilewidth="32" tileheight="32" tilecount="5" columns="5">
  <properties>
   <property name="kind" value="build"/>
  </properties>
  <image source="../tilesets/tiles.png" width="160" height="32"/>
  <tile id="1">
   <properties>
    <property name="kind" value="path"/>
   </properties>
  </tile>
  <tile id="2">
   <properties>
    <property name="kind" value="build"/>
   </properties>
  </tile>
  <tile id="3">
   <properties>
    <property name="kind" value="start"/>
   </properties>
  </tile>
  <tile id="4">
   <properties>
    <property name="kind" value="end"/>
   </properties>
  </tile>
 </tileset>
 <layer id="1" name="Ground" width="20" height="20">
  <data encoding="csv">
9,9,9,9,9,9,9,9,9,9,9,9,9,9,9,9,9,9,9,9,
9,9,9,9,9,9,9,9,9,9,9,9,9,9,9,9,9,9,9,9,
9,9,9,9,9,9,9,9,9,9,9,9,9,9,9,9,9,9,9,9,
33,33,33,33,33,33,33,33,33,33,33,33,33,33,33,33,33,9,9,9,
9,9,9,9,9,9,9,9,9,9,9,9,9,9,9,9,33,9,9,9,
9,9,9,9,9,9,9,9,9,9,9,9,9,9,9,9,33,9,9,9,
9,9,9,9,9,9,9,9,9,9,9,9,9,9,9,9,33,9,9,9,
9,9,9,9,9,9,9,9,9,9,9,9,9,9,9,9,33,9,9,9,
9,9,9,9,9,9,9,9,9,9,9,9,9,9,9,9,33,9,9,9,
9,9,9,33,33,33,33,33,33,33,33,33,33,33,33,33,33,9,9,9,
9,9,9,33,9,9,9,9,9,9,9,9,9,9,9,9,9,9,9,9,
9,9,9,33,9,9,9,9,9,9,9,9,9,9,9,9,9,9,9,9,
9,9,9,33,9,9,9,9,9,9,9,9,9,9,9,9,9,9,9,9,
9,9,9,33,9,9,9,9,9,9,9,9,9,9,9,9,9,9,9,9,
9,9,9,33,9,9,9,9,9,9,9,9,9,9,9,9,9,9,9,9,
9,9,9,33,33,33,33,33,33,33,33,33,33,33,33,33,33,33,33,33,
9,9,9,9,9,9,9,9,9,9,9,9,9,9,9,9,9,9,9,9,
9,9,9,9,9,9,9,9,9,9,9,9,9,9,9,9,9,9,9,9,
9,9,9,9,9,9,9,9,9,9,9,9,9,9,9,9,9,9,9,9,
9,9,9,9,9,9,9,9,9,9,9,9,9,9,9,9,9,9,9,9
</data>
 </layer>
 <layer id="4" name="Env" width="20" height="20">
  <data encoding="csv">
0,0,0,0,0,0,0,0,0,0,0,0,0,0,0,0,0,0,243,244,
0,0,0,0,0,0,0,0,0,0,0,0,0,0,0,0,0,0,262,263,
0,0,0,0,0,0,0,0,0,0,0,0,0,0,0,0,0,0,281,282,
0,0,0,0,0,0,0,0,0,0,0,0,0,0,0,0,0,0,0,0,
0,0,0,0,0,0,0,0,0,0,0,0,0,0,0,0,0,0,0,0,
0,0,0,0,0,0,0,0,0,0,0,275,0,0,0,0,0,0,0,0,
243,244,0,0,0,0,0,0,373,374,0,294,0,0,0,0,0,0,0,0,
262,263,0,0,0,0,0,0,0,0,0,0,0,0,0,0,0,0,0,0,
281,282,0,0,0,0,0,0,0,0,0,0,0,0,0,0,0,0,0,0,
0,0,0,0,0,0,0,0,0,0,0,0,0,0,0,0,0,0,0,0,
0,0,0,0,0,0,0,0,0,0,0,0,0,0,0,0,0,0,0,0,
0,0,0,0,0,0,0,0,0,0,0,0,0,0,0,0,0,0,0,0,
0,0,0,0,0,0,0,275,0,0,0,0,0,0,0,0,0,0,243,244,
0,0,0,0,0,0,0,294,0,0,0,0,0,0,0,0,0,0,262,263,
0,0,0,0,0,0,0,0,0,0,0,0,0,0,0,0,0,0,281,282,
0,0,0,0,0,0,0,0,0,0,0,0,0,0,0,0,0,0,0,0,
0,0,0,0,0,0,0,0,0,0,0,0,0,0,0,0,0,0,0,0,
0,373,374,0,0,0,0,0,0,0,0,0,0,0,0,0,0,0,0,0,
0,0,0,0,0,0,0,0,0,0,0,0,0,0,0,0,0,0,0,0,
0,0,0,0,0,0,0,0,0,0,0,0,0,0,0,0,0,0,0,0
</data>
 </layer>
 <layer id="3" name="Logic" width="20" height="20">
  <data encoding="csv">
0,0,0,0,0,0,0,0,0,0,0,0,0,0,0,0,0,0,0,0,
0,0,0,0,0,0,0,0,0,0,0,0,0,0,0,0,0,0,0,0,
0,0,863,0,0,0,0,863,0,0,0,0,863,0,0,0,0,0,0,0,
864,862,862,862,862,862,862,862,862,862,862,862,862,862,862,862,862,0,0,0,
0,0,0,0,863,0,0,0,0,863,0,0,0,0,863,0,862,0,0,0,
0,0,0,0,0,0,0,0,0,0,0,0,0,0,0,863,862,0,0,0,
0,0,0,0,0,0,0,0,0,0,0,0,0,0,0,0,862,0,0,0,
0,0,0,0,0,0,0,0,0,0,0,0,0,0,0,863,862,0,0,0,
0,0,0,0,0,0,0,863,0,0,0,0,0,863,0,0,862,0,0,0,
0,0,0,862,862,862,862,862,862,862,862,862,862,862,862,862,862,0,0,0,
0,0,0,862,0,863,0,0,0,0,863,0,0,0,0,863,0,0,0,0,
0,0,0,862,863,0,0,0,0,0,0,0,0,0,0,0,0,0,0,0,
0,0,0,862,0,0,0,0,0,0,0,0,0,0,0,0,0,0,0,0,
0,0,0,862,863,0,0,0,0,0,0,0,0,0,0,0,0,0,0,0,
0,0,0,862,0,0,0,0,863,0,0,0,0,0,863,0,0,0,0,0,
0,0,0,862,862,862,862,862,862,862,862,862,862,862,862,862,862,862,862,865,
0,0,0,0,0,863,0,0,0,0,0,863,0,0,0,0,0,863,0,0,
0,0,0,0,0,0,0,0,0,0,0,0,0,0,0,0,0,0,0,0,
0,0,0,0,0,0,0,0,0,0,0,0,0,0,0,0,0,0,0,0,
0,0,0,0,0,0,0,0,0,0,0,0,0,0,0,0,0,0,0,0
</data>
 </layer>
</map>
